Yaru++/apps/symbolic/gnome-robots-symbolic.svg

<svg height="16" width="16" xmlns="http://www.w3.org/2000/svg">
  <path d="m8.0214844.45898438c-3.2707993 0-6.0526177 2.10089392-7.08593752 5.02148442h1.06054692c.9786481-2.3632696 3.3037957-4.0214844 6.0253906-4.0214844 2.7215946 0 5.0453356 1.6582148 6.0234376 4.0214844h1.060547c-1.032807-2.9205905-3.813186-5.02148443-7.0839846-5.02148442zm-4.5019532 5.52148442c-.2769998 0-.4999998.2229999-.5.5v3c0 .2769996.2230002.5.5.5h8.9999998c.277 0 .5-.2230003.5-.5v-3c0-.2770001-.223-.5000002-.5-.5zm1.9003907 1c.554 0 1 .4459999 1 1 0 .554-.446 1-1 1s-1-.446-1-1c0-.5540001.446-1 1-1zm2.5996093 0c.5540002 0 1 .4459999 1 1 0 .554-.446 1-1 1-.5539997 0-1-.446-1-1 0-.5540001.4460003-1 1-1zm2.6015628 0c.554 0 1 .4459999 1 1 0 .554-.446 1-1 1s-1.0000002-.446-1.0000002-1c0-.5540001.4460002-1 1.0000002-1zm-9.68554712 3.5000002c1.03411022 2.919647 3.81618162 5.019531 7.08593752 5.019531 3.2697556 0 6.0503876-2.099884 7.0839846-5.019531h-1.0625c-.979069 2.36169-3.301422 4.019531-6.0214846 4.019531-2.7200623 0-5.0438229-1.657841-6.0234375-4.019531z" fill="#808080"/>
</svg>

<svg xmlns="http://www.w3.org/2000/svg" width="16" height="16" version="1.1">
 <g transform="translate(-652,-240)">
  <path style="fill:#808080" d="M 8.0214844 0.45898438 C 4.7506851 0.45898438 1.9688667 2.5598783 0.93554688 5.4804688 L 1.9960938 5.4804688 C 2.9747419 3.1171992 5.2998895 1.4589844 8.0214844 1.4589844 C 10.743079 1.4589844 13.06682 3.1171992 14.044922 5.4804688 L 15.105469 5.4804688 C 14.072662 2.5598783 11.292283 0.45898437 8.0214844 0.45898438 z M 3.5195312 5.9804688 C 3.2425314 5.9804688 3.0195314 6.2034687 3.0195312 6.4804688 L 3.0195312 9.4804688 C 3.0195312 9.7574684 3.2425314 9.9804688 3.5195312 9.9804688 L 12.519531 9.9804688 C 12.796531 9.9804688 13.019531 9.7574685 13.019531 9.4804688 L 13.019531 6.4804688 C 13.019531 6.2034687 12.796531 5.9804686 12.519531 5.9804688 L 3.5195312 5.9804688 z M 5.4199219 6.9804688 C 5.9739219 6.9804688 6.4199219 7.4264687 6.4199219 7.9804688 C 6.4199219 8.5344688 5.9739219 8.9804688 5.4199219 8.9804688 C 4.8659219 8.9804688 4.4199219 8.5344688 4.4199219 7.9804688 C 4.4199219 7.4264687 4.8659219 6.9804688 5.4199219 6.9804688 z M 8.0195312 6.9804688 C 8.5735314 6.9804688 9.0195312 7.4264687 9.0195312 7.9804688 C 9.0195312 8.5344688 8.5735312 8.9804688 8.0195312 8.9804688 C 7.4655315 8.9804688 7.0195312 8.5344688 7.0195312 7.9804688 C 7.0195312 7.4264687 7.4655315 6.9804688 8.0195312 6.9804688 z M 10.621094 6.9804688 C 11.175094 6.9804688 11.621094 7.4264687 11.621094 7.9804688 C 11.621094 8.5344688 11.175094 8.9804688 10.621094 8.9804688 C 10.067094 8.9804688 9.6210938 8.5344688 9.6210938 7.9804688 C 9.6210938 7.4264687 10.067094 6.9804688 10.621094 6.9804688 z M 0.93554688 10.480469 C 1.9696571 13.400116 4.7517285 15.5 8.0214844 15.5 C 11.29124 15.5 14.071872 13.400116 15.105469 10.480469 L 14.042969 10.480469 C 13.0639 12.842159 10.741547 14.5 8.0214844 14.5 C 5.3014221 14.5 2.9776615 12.842159 1.9980469 10.480469 L 0.93554688 10.480469 z" transform="translate(652,240)"/>
 </g>
</svg>
